favicon/favicon.svg

<?xml version="1.0" encoding="UTF-8" standalone="no"?>
<!-- Created with PixiEditor (https://pixieditor.net) -->

<svg
   version="1.1"
   viewBox="0 0 480.05194 531.94885"
   id="svg3"
   sodipodi:docname="Castle.svg"
   width="480.05194"
   height="531.94885"
   inkscape:version="1.4.2 (f4327f4, 2025-05-13)"
   xmlns:inkscape="http://www.inkscape.org/namespaces/inkscape"
   xmlns:sodipodi="http://sodipodi.sourceforge.net/DTD/sodipodi-0.dtd"
   xmlns="http://www.w3.org/2000/svg"
   xmlns:svg="http://www.w3.org/2000/svg">
  <defs
     id="defs3" />
  <sodipodi:namedview
     id="namedview3"
     pagecolor="#505050"
     bordercolor="#ffffff"
     borderopacity="1"
     inkscape:showpageshadow="0"
     inkscape:pageopacity="0"
     inkscape:pagecheckerboard="1"
     inkscape:deskcolor="#505050"
     inkscape:zoom="1.811553"
     inkscape:cx="-29.256665"
     inkscape:cy="206.7287"
     inkscape:window-width="3840"
     inkscape:window-height="2131"
     inkscape:window-x="-9"
     inkscape:window-y="-9"
     inkscape:window-maximized="1"
     inkscape:current-layer="svg3" />
  <g
     opacity="1"
     id="New folder"
     transform="matrix(1.9249035,0,0,1.9249035,9.9999998,9.9999998)">
    <path
       d="m 52,23.3 c 0,16.8 0.3,23.6 1.2,24.5 0.9,0.9 16.9,1.2 65.9,1.2 35.6,0 65.4,-0.3 66.3,-0.6 1.4,-0.5 1.6,-3.6 1.6,-24.5 V 0 H 174.5 162 V 11 22.1 L 147.8,21.8 133.5,21.5 133.2,10.7 132.9,0 H 119.5 106 V 11 22 H 92 78 V 11 0 H 65 52 Z"
       fill-rule="nonzero"
       fill="#208060"
       fill-opacity="1"
       stroke="#208060"
       stroke-width="0"
       stroke-linecap="butt"
       stroke-linejoin="miter"
       opacity="1"
       id="Path"
       style="fill:#5faf8f;fill-opacity:1;stroke:#000000;stroke-width:10.3901;stroke-dasharray:none;stroke-opacity:1" />
    <path
       d="m 69.7,62.7 c -1,0.9 -0.9,183.1 0.1,183.6 0.4,0.3 4.8,0.1 9.7,-0.4 5,-0.5 12,-1.1 15.7,-1.5 l 6.7,-0.5 0.3,-28.7 c 0.3,-27.9 0.4,-28.8 2.6,-32.4 5.8,-9.3 17.9,-11.1 26.3,-4.1 5.6,4.8 5.9,6.5 5.9,37.3 0,15.4 0.3,28 0.8,28 2.8,0.1 25.5,2.1 29,2.6 l 4.2,0.6 V 154.6 62 H 120.7 C 93,62 70,62.3 69.7,62.7 Z m 57.2,26.1 c 6,4.5 6.2,5 6.4,27.7 l 0.2,21 -13.8,0.3 -13.8,0.3 0.3,-21.3 c 0.3,-20.1 0.4,-21.5 2.5,-24.4 4.5,-6.3 12.5,-7.9 18.2,-3.6 z"
       fill-rule="nonzero"
       fill="#208060"
       fill-opacity="1"
       stroke="#208060"
       stroke-width="0"
       stroke-linecap="butt"
       stroke-linejoin="miter"
       opacity="1"
       id="path1"
       style="fill:#5faf8f;fill-opacity:1;stroke:#000000;stroke-width:10.3901;stroke-dasharray:none;stroke-opacity:1" />
    <path
       d="m 0,176.1 c 0,70.1 0.300003,88 1.3,87.5 7.2,-3 31.6,-10.2 41.8,-12.3 L 56,248.7 55.8,168.6 55.5,88.5 H 48 40.5 L 40.2,98.7 39.9,109 H 29 18 V 98.5 88 H 9 0 Z"
       fill-rule="nonzero"
       fill="#208060"
       fill-opacity="1"
       stroke="#208060"
       stroke-width="0"
       stroke-linecap="butt"
       stroke-linejoin="miter"
       opacity="1"
       id="path2"
       style="fill:#5faf8f;fill-opacity:1;stroke:#000000;stroke-width:10.3901;stroke-dasharray:none;stroke-opacity:1" />
    <path
       d="m 184,168.5 v 80.4 l 3.8,0.6 c 8.4,1.4 33.3,7.9 41.9,11 l 9.3,3.3 V 175.9 88 h -9 -9 v 10.5 10.6 l -10.7,-0.3 -10.8,-0.3 -0.3,-10.3 -0.3,-10.2 h -7.4 -7.5 z"
       fill-rule="nonzero"
       fill="#208060"
       fill-opacity="1"
       stroke="#208060"
       stroke-width="0"
       stroke-linecap="butt"
       stroke-linejoin="miter"
       opacity="1"
       id="path3"
       style="fill:#5faf8f;fill-opacity:1;stroke:#000000;stroke-width:10.3901;stroke-dasharray:none;stroke-opacity:1" />
  </g>
</svg>

<!-- Created with PixiEditor (https://pixieditor.net) -->
<svg version="1.1" viewBox="0 0 240 264" xmlns="http://www.w3.org/2000/svg">
  <g opacity="1" id="New folder">
    <path d="M52 23.3C52 40.1 52.3 46.9 53.2 47.8C54.1 48.7 70.1 49 119.1 49C154.7 49 184.5 48.7 185.4 48.4C186.8 47.9 187 44.8 187 23.9L187 0L174.5 0L162 0L162 11L162 22.1L147.8 21.8L133.5 21.5L133.2 10.7L132.9 0L119.5 0L106 0L106 11L106 22L92 22L78 22L78 11L78 0L65 0L52 0L52 23.3Z" fill-rule="nonzero" transform="matrix(1, 0, 0, 1, 0, 0)" fill="#208060" fill-opacity="1" stroke="#208060" stroke-width="0" stroke-linecap="butt" stroke-linejoin="miter" opacity="1" id="Path" />
    <path d="M69.7 62.7C68.7 63.6 68.8 245.8 69.8 246.3C70.2 246.6 74.6 246.4 79.5 245.9C84.5 245.4 91.5 244.8 95.2 244.4L101.9 243.9L102.2 215.2C102.5 187.3 102.6 186.4 104.8 182.8C110.6 173.5 122.7 171.7 131.1 178.7C136.7 183.5 137 185.2 137 216C137 231.4 137.3 244 137.8 244C140.6 244.1 163.3 246.1 166.8 246.6L171 247.2L171 154.6L171 62L120.7 62C93 62 70 62.3 69.7 62.7ZM126.9 88.8C132.9 93.3 133.1 93.8 133.3 116.5L133.5 137.5L119.7 137.8L105.9 138.1L106.2 116.8C106.5 96.7 106.6 95.3 108.7 92.4C113.2 86.1 121.2 84.5 126.9 88.8Z" fill-rule="nonzero" transform="matrix(1, 0, 0, 1, 0, 0)" fill="#208060" fill-opacity="1" stroke="#208060" stroke-width="0" stroke-linecap="butt" stroke-linejoin="miter" opacity="1" id="Path" />
    <path d="M0 176.1C0 246.2 0.300003 264.1 1.3 263.6C8.5 260.6 32.9 253.4 43.1 251.3L56 248.7L55.8 168.6L55.5 88.5L48 88.5L40.5 88.5L40.2 98.7L39.9 109L29 109L18 109L18 98.5L18 88L9 88L0 88L0 176.1Z" fill-rule="nonzero" transform="matrix(1, 0, 0, 1, 0, 0)" fill="#208060" fill-opacity="1" stroke="#208060" stroke-width="0" stroke-linecap="butt" stroke-linejoin="miter" opacity="1" id="Path" />
    <path d="M184 168.5L184 248.9L187.8 249.5C196.2 250.9 221.1 257.4 229.7 260.5L239 263.8L239 175.9L239 88L230 88L221 88L221 98.5L221 109.1L210.3 108.8L199.5 108.5L199.2 98.2L198.9 88L191.5 88L184 88L184 168.5Z" fill-rule="nonzero" transform="matrix(1, 0, 0, 1, 0, 0)" fill="#208060" fill-opacity="1" stroke="#208060" stroke-width="0" stroke-linecap="butt" stroke-linejoin="miter" opacity="1" id="Path" />
  </g>
</svg>
